X:1
T:The Soldier's Boy
M:4/4
L:1/4
K:C
 E| G G E G| C3/2- B,/2 A, F/2E/2| D D DE/2-^F/2| G2 z| E/2E/2| G G/2G/2 EG/2-G/2|\
 C-B,/2-B,/2 A,F/2-E/2| D D/2D/2 G, A,/2B,/2| C2 z| C| D D D A| G G/2E/2 C3/2 C/2|\
 D D D A| G2- G3/2| E/2| G G E G| C/2C/2 C/2B,/2 A, F/2E/2| D D G, A,/2B,/2|\
 C2 z||

